packages/dnb-ui-lib/assets/icons/bell_medium.svg

<svg width="24" height="24" viewBox="0 0 24 24" fill="none" xmlns="http://www.w3.org/2000/svg">
<path fill-rule="evenodd" clip-rule="evenodd" d="M12 0C12.4142 0 12.75 0.335786 12.75 0.75V2.28371C16.9549 2.66265 20.25 6.1967 20.25 10.5003C20.25 13.9761 20.6207 15.9563 20.9649 17.041C21.1363 17.5813 21.2988 17.8919 21.4 18.0523C21.4505 18.1324 21.4856 18.1749 21.499 18.1901L21.5015 18.193C21.7257 18.3945 21.8085 18.7125 21.7075 18.9995C21.6019 19.2997 21.3183 19.5006 21 19.5006H3.00001C2.71313 19.5006 2.45138 19.337 2.32575 19.0791C2.20172 18.8245 2.23181 18.522 2.40275 18.297L2.40391 18.2954C2.40771 18.29 2.41693 18.2766 2.43084 18.2547C2.45863 18.2108 2.50527 18.1323 2.56484 18.0143C2.68391 17.7784 2.85517 17.3833 3.03067 16.7886C3.38182 15.5986 3.75001 13.6091 3.75001 10.5003C3.75001 6.1967 7.04511 2.66265 11.25 2.28371V0.75C11.25 0.335786 11.5858 0 12 0ZM12 3.75008C8.27211 3.75008 5.25001 6.77225 5.25001 10.5003C5.25001 13.7258 4.86819 15.8615 4.46934 17.2131C4.38079 17.5132 4.2914 17.7746 4.20518 18.0006H19.7132C19.6538 17.8486 19.5941 17.6805 19.5351 17.4947C19.1293 16.2158 18.75 14.0708 18.75 10.5003C18.75 6.77225 15.7279 3.75008 12 3.75008ZM9.78876 21.0311C10.1862 20.9144 10.603 21.142 10.7196 21.5395C10.8868 22.1089 11.4092 22.4999 12.0025 22.4999C12.5958 22.4999 13.1182 22.1089 13.2854 21.5395C13.402 21.142 13.8188 20.9144 14.2163 21.0311C14.6137 21.1478 14.8413 21.5645 14.7246 21.962C14.37 23.1701 13.2616 23.9999 12.0025 23.9999C10.7434 23.9999 9.635 23.1701 9.28037 21.962C9.1637 21.5645 9.39132 21.1478 9.78876 21.0311Z" fill="black"/>
</svg>

<svg width="24" height="24" viewBox="0 0 24 24" fill="none" xmlns="http://www.w3.org/2000/svg"><path fill-rule="evenodd" clip-rule="evenodd" d="M12 0a.75.75 0 01.75.75v1.534a8.251 8.251 0 017.5 8.216c0 3.476.37 5.456.715 6.541.171.54.334.85.435 1.011.05.08.086.123.099.138l.003.003A.75.75 0 0121 19.501H3a.75.75 0 01-.597-1.204v-.002a2.892 2.892 0 00.16-.281c.12-.236.292-.63.468-1.225.35-1.19.719-3.18.719-6.289a8.251 8.251 0 017.5-8.216V.75A.75.75 0 0112 0zm0 3.75a6.75 6.75 0 00-6.75 6.75c0 3.226-.382 5.361-.78 6.713-.09.3-.179.562-.265.788h15.508a8.25 8.25 0 01-.178-.506c-.406-1.28-.785-3.424-.785-6.995A6.75 6.75 0 0012 3.75zM9.789 21.031a.75.75 0 01.93.509 1.337 1.337 0 002.566 0 .75.75 0 111.44.422 2.837 2.837 0 01-5.445 0 .75.75 0 01.509-.93z" fill="#000"/></svg>
